X:36
T:Harvest Home, The
S:The Session: https://thesession.org/tunes/49#setting49
C:Traditional
R:hornpipe
K:D
M:4/4
L:1/8
Q:1/4=138
AF|: DAFA DAFA| defe dcBA| eAfA gAfA| (3efe (3dcB AGFE|
| DAFA DAFA| defe dcBA| eAfA gfec|1 d2 f2 d2 AF :|2 d2 f2 d2 cd |]
|: eAAA fAAA| gAfA eAAA| eAfA gAfA| (3efe (3dcB (3ABA (3GFE|
| DAFA DAFA| defe dcBA| eAfA gfec|1 d2 f2 d2 cd:|2 d2 f2 d4|]

